**kern	**kern	**dynam
*part1	*part1	*part1
*staff2	*staff1	*
*I"Piano	*	*
*clefF4	*clefG2	*
*k[]	*k[]	*
=1	=1	=1
4.GG 4.G	8BL 8f 8g	mf <
.	8B 8f 8g	.
.	8BJ 8f 8g	.
4.GG 4.G	8BL 8f 8g	.
.	8B 8f 8g	.
.	8BJ 8f 8g	.
=	=	=
(2.GGG [2.GG	8BL 8f 8g	[ >
.	8B 8f 8g	.
.	8BJ 8f 8g	.
.	8BL 8f 8g	.
.	8B 8f 8g	.
.	8BJ 8f [8g	.
=	=	=
4CC) 4GG]	4c 4e 4g]	]
8r	2r	.
4r	.	.
8r	.	.
=	=	=
(4.GGG' 4.GG	8cL 8d	p <
.	8c 8d	.
.	8cJ 8d	.
4.GGG' 4.GG	8BL 8f	[ >
.	8B 8f	.
.	8BJ 8f	.
=	=	=
4GGG') 4GG	4c 4e	]
8r	8r	.
4r	4r	.
8r	8G 8c 8e	pp
=	=	=
*	*^	*
!	!	!	!LO:DY:a
(4.GGG' 4.GG	(2.f	8AL 8c	>
.	.	8A 8c	.
.	.	8AJ 8c	.
(4.GGG' [4.GG	.	8BL 8d	.
.	.	8B 8d	.
.	.	8BJ 8d	.
=	=	=	=
4CC)) 4GG]	4e)	4c	.
*	*v	*v	*
8r	8r	]
4r	4r	.
==	==	==
*-	*-	*-
!!!system-decoration: {(s1,s2)}
